X:1
T:O What a Day Is Coming
T:O What a Day Is Coming
T:D. C. John
T:Henry Ostrom, 1895
T:Public Domain Courtesy of the Cyber Hymnal™
T:Public Domain Courtesy of the Cyber Hymnal™
C:D. C. John
Z:Public Domain
Z:Courtesy of the Cyber Hymnal™
%%score ( 1 2 ) ( 3 4 )
L:1/8
Q:1/4=105
M:6/8
K:G
V:1 treble 
V:2 treble 
V:3 bass 
V:4 bass 
V:1
 D | [DG]2 [DG] [FA]2 [FA] | [GB] [Gd]4 [Ge] | [Gd]2 [GB] (BA)G | [FA]3- [FA]2 D | %5
w: 1.~O|what a day is|com- ing, Swift|o’er the hills * of|time! * My|
w: 2.~When|wide as o- cean|bil- lows Shall|flow the waves * of|peace, * Till|
w: 3.~O|day of God and|man- hood, Break|o’er these cloud- * ed|hills, * Shine|
w: 4.~O|what a day is|com- ing, When|men with an- * gels|vie * To|
 [DG]2 [DG] [FA]2 [FA] | [GB] [Gd]4 [Ge] | [Gd]2 G [GB]2 [FA] | G3- G2 [=FG] | %9
w: soul to meet its|glo- ry, Sets|all her bells a-|chime; * What|
w: man to man is|bro- ther, And|bit- ter- ness shall|cease; * And,|
w: on our rest and|la- bor Till|earth with Hea- ven|thrills; * Give|
w: cause Je- ho- vah’s|prais- es To|sound thro’ earth and|sky! * When|
 [=Ec]2 [Ec] [Gc]2 [Ac] | [Gc]3 [GB]2 [GB] | [Gd]2 [GB] G2 [GB] | [FA]3- [FA]2 D | %13
w: woes will soon be|light- ed, What|sol- ace draw- eth|near; * What|
w: as the in- cense|ris- es, At|morn and ev- en-|tide, * Faith|
w: loy- al love and|du- ty, Give|rap- ture for our|tears, * And|
w: long- est friends are|greet- ed, When|stran- gers cease to|roam, * When|
 [DG]2 [DG] [FA]2 [FA] | [GB] [Gd]4 [Ge] | [Gd]2 G [GB]2 [FA] | G3- G2 ||"^Refrain" G | %18
w: wrongs will soon be|right- ed, What|mys- ter- ies made|clear! *||
w: reaps her vast sur-|pris- es, Where|doubt and fear have|died. *|’Twill|
w: shine in gold- en|beau- ty A|mill- ion, mill- ion|years. *||
w: man, his task com-|plet- ed, With|Je- sus rests at|home. *||
 G[FA][=FB] [Ec]3- | [Ec]3- [Ec]2 [Ec] | ([Ec][GB])[FA] [GB]3- | [GB]3- [GB]2 [GB] | %22
w: ||||
w: sure- ly come, It|* * draw-|eth * nigh; Its|* * glor-|
w: ||||
w: ||||
 ([GB][FA])[EG] [FA]3- | [FA]3- [FA]2 ([GB]/[Ac]/) | ([ce][Bd])[^A^c] [Bd]3- | [Bd]3- [Bd]2 [Bd] | %26
w: ||||
w: ious * dawn Lights|* * up *|the * sky; ’Twill|* * sure-|
w: ||||
w: ||||
 ([Bd][Ac])[GB] [Ac]3- | [Ac]3- [Ac]2 [Ac] | ([Ac][GB])[FA] [GB]3- | [GB]3- [GB]2 !fermata![Be] | %30
w: ||||
w: ly * come, It|* * draw-|eth * nigh; ’Tis|* * com-|
w: ||||
w: ||||
"^riten." [Gd] [GB]2 [DA]2 [DG] | [DG]3- [DG]2 |] %32
w: ||
w: ing by and by.||
w: ||
w: ||
V:2
 D | x6 | x6 | x3 G2 G | x5 D | x6 | x6 | x2 G x3 | G3- G2 x | x6 | x6 | x3 G2 x | x5 D | x6 | x6 | %15
 x2 G x3 | G3- G2 || G | G x5 | x6 | x6 | x6 | x6 | x6 | x6 | x6 | x6 | x6 | x6 | x6 | x6 | x5 |] %32
V:3
 [G,B,] | [G,B,]2 [G,B,] [D,D]2 [D,D] | [G,D] [G,B,]4 [C,C] | [G,B,]2 [G,D] (DC)[G,B,] | %4
w: ~|~ ~ ~ ~|~ ~ ~|~ ~ ~ * ~|
 [D,D]3- [D,D]2 [G,B,] | [G,B,]2 [G,B,] [D,D]2 [D,D] | [G,D] [G,B,]4 [C,C] | %7
w: ~ * ~|~ ~ ~ ~|~ ~ ~|
 [D,B,]2 [D,B,] [D,D]2 [D,C] | [G,B,]3- [G,B,]2 [G,B,] | [C,C]2 [C,C] [E,C]2 [F,C] | %10
w: ~ ~ ~ ~|~ * ~|~ ~ ~ ~|
 [G,E]3 [G,D]2 [G,D] | [G,D]2 [G,D] [B,D]2 [G,D] | [D,D]3- [D,D]2 [G,B,] | %13
w: ~ ~ ~|~ ~ ~ ~|~ * ~|
 [G,B,]2 [G,B,] [D,D]2 [D,D] | [G,D] [G,B,]4 [C,C] | [D,B,]2 [D,B,] [D,D]2 [D,C] | %16
w: ~ ~ ~ ~|~ ~ ~|~ ~ ~ ~|
 [G,,G,B,]3- [G,,G,B,]2 || z | z4 z [C,C] | C2 [G,C] C2 z | z4 z [G,,D] | D2 [D,D] [G,D]2 z | %22
w: ~ *||’Twill|sure- ly come,|it|draw- eth nigh,|
 z4 z [D,D] | D2 [A,D] [CD]2 z | z4 z [G,,G,] | G,2 [D,G,] G,2 z | z4 z [D,D] | D2 [A,D] D2 z | %28
w: Its|glor- ious dawn|lights|up the sky;|’Twill|sure- ly come,|
 z4 z [G,,G,] | G,2 [D,G,] G,2 !fermata![B,,C] | [D,B,] [D,D]2 [D,C]2 [G,,G,B,] | %31
w: it|draw- eth nigh, *||
 [G,,G,B,]3- [G,,G,B,]2 |] %32
w: |
V:4
 x | x6 | x6 | x3 G,2 x | x6 | x6 | x6 | x6 | x6 | x6 | x6 | x6 | x6 | x6 | x6 | x6 | x5 || x | %18
 x6 | (C,E,) C2 x2 | x6 | (G,,B,,) x4 | x6 | (D,F,) x4 | x6 | (G,,B,,) G,2 x2 | x6 | (D,F,) D2 x2 | %28
 x6 | (G,,B,,) G,2 x2 | x6 | x5 |] %32

